img/photo-camera.svg

<svg xmlns="http://www.w3.org/2000/svg" width="22" height="16"><path d="M19.081 15.994H2.919a2.915 2.915 0 01-2.91-2.913V4.576a2.913 2.913 0 012.653-2.901c.13-.556.492-.935.924-.935h2.097c.43 0 .789.374.921.922H9.57l1.437-1.66h4.911l1.769 1.66h1.394a2.914 2.914 0 012.908 2.914v8.505a2.914 2.914 0 01-2.908 2.913zM2.641 6.513a.55.55 0 00-1.1 0v5.807a.55.55 0 001.1 0V6.513zm3.308-3.042a.58.58 0 00-.58-.581H3.878c-.32 0-.581.26-.581.581v.342c0 .32.261.58.581.58h1.491c.319 0 .58-.26.58-.58v-.342zm7.792.779a4.658 4.658 0 00-4.65 4.655 4.658 4.658 0 004.65 4.655 4.657 4.657 0 004.648-4.655 4.657 4.657 0 00-4.648-4.655zm0 7.918a3.265 3.265 0 01-3.259-3.263 3.264 3.264 0 013.259-3.262 3.263 3.263 0 010 6.525z"/></svg>

<svg
		xmlns="http://www.w3.org/2000/svg"
		xmlns:xlink="http://www.w3.org/1999/xlink"
		width="22px" height="16px">
	<g>
		<path d="M19.081,15.994 L2.919,15.994 C1.314,15.994 0.009,14.687 0.009,13.081 L0.009,4.576 C0.009,3.056 1.177,1.804 2.662,1.675 C2.792,1.119 3.154,0.740 3.586,0.740 L5.683,0.740 C6.113,0.740 6.472,1.114 6.604,1.662 L9.570,1.662 L11.007,0.002 L15.918,0.002 L17.687,1.662 L19.081,1.662 C20.685,1.662 21.989,2.969 21.989,4.576 L21.989,13.081 C21.989,14.687 20.685,15.994 19.081,15.994 ZM2.641,6.513 C2.641,6.209 2.394,5.963 2.091,5.963 C1.787,5.963 1.541,6.209 1.541,6.513 L1.541,12.320 C1.541,12.623 1.787,12.869 2.091,12.869 C2.394,12.869 2.641,12.623 2.641,12.320 L2.641,6.513 ZM5.949,3.471 C5.949,3.150 5.689,2.890 5.369,2.890 L3.878,2.890 C3.558,2.890 3.297,3.150 3.297,3.471 L3.297,3.813 C3.297,4.133 3.558,4.393 3.878,4.393 L5.369,4.393 C5.688,4.393 5.949,4.133 5.949,3.813 L5.949,3.471 ZM13.741,4.250 C11.177,4.250 9.091,6.339 9.091,8.905 C9.091,11.471 11.177,13.560 13.741,13.560 C16.304,13.560 18.389,11.471 18.389,8.905 C18.389,6.339 16.304,4.250 13.741,4.250 ZM13.741,12.168 C11.944,12.168 10.482,10.703 10.482,8.905 C10.482,7.106 11.944,5.643 13.741,5.643 C15.538,5.643 16.999,7.106 16.999,8.905 C16.999,10.703 15.538,12.168 13.741,12.168 Z"/>
	</g>
</svg>
